images/fido-signature-formats-figure2.svg

<?xml version="1.0" encoding="UTF-8" standalone="no"?>
<svg
   xmlns:dc="http://purl.org/dc/elements/1.1/"
   xmlns:cc="http://creativecommons.org/ns#"
   xmlns:rdf="http://www.w3.org/1999/02/22-rdf-syntax-ns#"
   xmlns:svg="http://www.w3.org/2000/svg"
   xmlns="http://www.w3.org/2000/svg"
   xmlns:sodipodi="http://sodipodi.sourceforge.net/DTD/sodipodi-0.dtd"
   xmlns:inkscape="http://www.inkscape.org/namespaces/inkscape"
   version="1.1"
   viewBox="0 0 396.8504 170.07874"
   width="396.8504pt"
   height="170.07874pt"
   id="svg3761"
   inkscape:version="0.91 r13725"
   sodipodi:docname="fido-signature-formats-figure2.svg">
  <sodipodi:namedview
     pagecolor="#ffffff"
     bordercolor="#666666"
     borderopacity="1"
     objecttolerance="10"
     gridtolerance="10"
     guidetolerance="10"
     inkscape:pageopacity="0"
     inkscape:pageshadow="2"
     inkscape:window-width="1847"
     inkscape:window-height="1156"
     id="namedview3844"
     showgrid="false"
     inkscape:zoom="2.6428095"
     inkscape:cx="264.49178"
     inkscape:cy="106.29921"
     inkscape:window-x="0"
     inkscape:window-y="0"
     inkscape:window-maximized="0"
     inkscape:current-layer="svg3761" />
  <metadata
     id="metadata3763"> Produced by OmniGraffle 6.2.5 <dc:date>2015-08-20 23:19:13 +0000</dc:date>
<rdf:RDF>
  <cc:Work
     rdf:about="">
    <dc:format>image/svg+xml</dc:format>
    <dc:type
       rdf:resource="http://purl.org/dc/dcmitype/StillImage" />
  </cc:Work>
</rdf:RDF>
</metadata>
  <defs
     id="defs3765">
    <font-face
       font-family="Helvetica Neue"
       font-size="10"
       panose-1="2 0 5 3 0 0 0 2 0 4"
       units-per-em="1000"
       underline-position="-100"
       underline-thickness="50"
       slope="0"
       x-height="517"
       cap-height="714"
       ascent="951.99585"
       descent="-212.99744"
       font-weight="500"
       id="font-face3767">
      <font-face-src>
        <font-face-name
           name="HelveticaNeue" />
      </font-face-src>
    </font-face>
    <font-face
       font-family="Helvetica Neue"
       font-size="8"
       panose-1="2 0 5 3 0 0 0 2 0 4"
       units-per-em="1000"
       underline-position="-100"
       underline-thickness="50"
       slope="0"
       x-height="517"
       cap-height="714"
       ascent="951.99585"
       descent="-212.99744"
       font-weight="500"
       id="font-face3769">
      <font-face-src>
        <font-face-name
           name="HelveticaNeue" />
      </font-face-src>
    </font-face>
    <marker
       orient="auto"
       overflow="visible"
       markerUnits="strokeWidth"
       id="FilledArrow_Marker"
       viewBox="-1 -4 10 8"
       markerWidth="10"
       markerHeight="8"
       color="black">
      <g
         id="g3772">
        <path
           d="M 8 0 L 0 -3 L 0 3 Z"
           fill="currentColor"
           stroke="currentColor"
           stroke-width="1"
           id="path3774" />
      </g>
    </marker>
  </defs>
  <rect
     x="17.007874"
     y="17.007874"
     width="181.41731"
     height="22.677164"
     id="rect3784"
     style="fill:none;fill-opacity:1;stroke:#000000;stroke-width:0.5;stroke-linecap:round;stroke-linejoin:round;stroke-dasharray:none;stroke-opacity:1" />
  <text
     id="text3786"
     style="fill:#000000;fill-opacity:1;stroke:none;stroke-dasharray:none;stroke-opacity:1"
     x="22.007874"
     y="22.346457">
    <tspan
       font-size="10"
       font-weight="500"
       x="67.801537"
       y="32.346458"
       textLength="79.83"
       id="tspan3788"
       style="font-weight:500;font-size:10px;font-family:'Helvetica Neue'">authenticatorData</tspan>
  </text>
  <rect
     x="215.43307"
     y="17.007874"
     width="164.40945"
     height="22.677164"
     id="rect3790"
     style="fill:none;fill-opacity:1;stroke:#000000;stroke-width:0.5;stroke-linecap:round;stroke-linejoin:round;stroke-dasharray:none;stroke-opacity:1" />
  <text
     id="text3792"
     style="fill:#000000;fill-opacity:1;stroke:none;stroke-dasharray:none;stroke-opacity:1"
     x="220.43307"
     y="22.346457">
    <tspan
       font-size="10"
       font-weight="500"
       x="263.6528"
       y="32.346458"
       textLength="67.97"
       id="tspan3794"
       style="font-weight:500;font-size:10px;font-family:'Helvetica Neue'">clientDataHash</tspan>
  </text>
  <text
     id="text3796"
     style="fill:#000000;fill-opacity:1;stroke:none;stroke-dasharray:none;stroke-opacity:1"
     x="15.688976"
     y="5">
    <tspan
       font-size="8"
       font-weight="500"
       x="15.688976"
       y="13"
       textLength="97.944"
       id="tspan3798"
       style="font-weight:500;font-size:8px;font-family:'Helvetica Neue'">Generated by authenticator</tspan>
  </text>
  <text
     id="text3800"
     style="fill:#000000;fill-opacity:1;stroke:none;stroke-dasharray:none;stroke-opacity:1"
     x="214.76378"
     y="5">
    <tspan
       font-size="8"
       font-weight="500"
       x="214.76378"
       y="13"
       textLength="40.44"
       id="tspan3802"
       style="font-weight:500;font-size:8px;font-family:'Helvetica Neue'">Received from client</tspan>
  </text>
  <circle
     cx="297.63779"
     cy="62.362206"
     r="8.5039501"
     id="circle3806"
     style="fill:#ffffff;fill-opacity:1;stroke:none;stroke-dasharray:none;stroke-opacity:1" />
  <circle
     cx="297.63779"
     cy="62.362206"
     r="8.5039501"
     id="circle3808"
     style="fill:none;fill-opacity:1;stroke:#000000;stroke-width:0.5;stroke-linecap:round;stroke-linejoin:round;stroke-dasharray:none;stroke-opacity:1" />
  <text
     id="text3810"
     style="fill:#000000;fill-opacity:1;stroke:none;stroke-dasharray:none;stroke-opacity:1"
     x="295.83463"
     y="56.681889">
    <tspan
       font-size="8"
       font-weight="500"
       x="295.86179"
       y="64.681892"
       textLength="3.552"
       id="tspan3812"
       style="font-weight:500;font-size:8px;font-family:'Helvetica Neue';fill:#000000">||</tspan>
  </text>
  <path
     d="m 297.6378,39.68504 0,5.66929 0,3.303933"
     id="path3814"
     inkscape:connector-curvature="0"
     style="fill:none;fill-opacity:1;stroke:#000000;stroke-width:0.5;stroke-linecap:round;stroke-linejoin:round;stroke-dasharray:none;stroke-opacity:1;marker-end:url(#FilledArrow_Marker)" />
  <path
     d="m 107.71653,39.68504 0,22.677164 176.21732,0"
     id="path3816"
     inkscape:connector-curvature="0"
     style="fill:none;fill-opacity:1;stroke:#000000;stroke-width:0.5;stroke-linecap:round;stroke-linejoin:round;stroke-dasharray:none;stroke-opacity:1;marker-end:url(#FilledArrow_Marker)" />
  <rect
     x="198.4252"
     y="124.72441"
     width="181.41731"
     height="22.677164"
     id="rect3818"
     style="fill:none;fill-opacity:1;stroke:#000000;stroke-width:0.5;stroke-linecap:round;stroke-linejoin:round;stroke-dasharray:none;stroke-opacity:1" />
  <text
     id="text3820"
     style="line-height:125%;fill:#000000;fill-opacity:1;stroke:none;stroke-dasharray:none;stroke-opacity:1"
     x="223.70665"
     y="140.35506"
     sodipodi:linespacing="125%">
    <tspan
       style="font-style:normal;font-variant:normal;font-weight:normal;font-stretch:normal;font-size:12px;line-height:125%;font-family:'Helvetica Neue';-inkscape-font-specification:'Helvetica Neue, Normal';text-align:start;writing-mode:lr-tb;text-anchor:start"
       id="tspan4357">ASSERTION SIGNATURE</tspan>
  </text>
  <path
     d="m 257.95275,88.440944 3.40158,-3.401574 72.56693,0 3.40157,3.401574 0,10.204726 -3.40157,3.40157 -72.56693,0 -3.40158,-3.40157 z"
     id="path3826"
     inkscape:connector-curvature="0"
     style="fill:none;fill-opacity:1;stroke:#000000;stroke-width:0.5;stroke-linecap:round;stroke-linejoin:round;stroke-dasharray:none;stroke-opacity:1" />
  <text
     id="text3828"
     style="fill:#000000;fill-opacity:1;stroke:none;stroke-dasharray:none;stroke-opacity:1"
     x="264.93701"
     y="87.543304">
    <tspan
       font-size="10"
       font-weight="500"
       x="287.63779"
       y="97.543304"
       textLength="20"
       id="tspan3830"
       style="font-weight:500;font-size:10px;font-family:'Helvetica Neue'">Sign</tspan>
  </text>
  <path
     d="m 297.6378,70.866146 0,7.086609 0,1.886615"
     id="path3832"
     inkscape:connector-curvature="0"
     style="fill:none;fill-opacity:1;stroke:#000000;stroke-width:0.5;stroke-linecap:round;stroke-linejoin:round;stroke-dasharray:none;stroke-opacity:1;marker-end:url(#FilledArrow_Marker)" />
  <path
     d="m 297.6378,102.04724 0,11.33859 0,6.13858"
     id="path3834"
     inkscape:connector-curvature="0"
     style="fill:none;fill-opacity:1;stroke:#000000;stroke-width:0.5;stroke-linecap:round;stroke-linejoin:round;stroke-dasharray:none;stroke-opacity:1;marker-end:url(#FilledArrow_Marker)" />
  <rect
     x="133.22835"
     y="85.039368"
     width="79.370079"
     height="17.007874"
     id="rect3836"
     style="fill:none;fill-opacity:1;stroke:#000000;stroke-width:0.5;stroke-linecap:round;stroke-linejoin:round;stroke-dasharray:none;stroke-opacity:1" />
  <text
     id="text3838"
     style="fill:#000000;fill-opacity:1;stroke:none;stroke-dasharray:none;stroke-opacity:1"
     x="138.22835"
     y="87.543304">
    <tspan
       font-size="10"
       font-weight="500"
       x="148.28339"
       y="97.543304"
       textLength="49.26"
       id="tspan3840"
       style="font-weight:500;font-size:10px;font-family:'Helvetica Neue'">Private key</tspan>
  </text>
  <path
     d="m 212.59842,93.543307 22.67717,0 17.47716,0"
     id="path3842"
     inkscape:connector-curvature="0"
     style="fill:none;fill-opacity:1;stroke:#000000;stroke-width:0.5;stroke-linecap:round;stroke-linejoin:round;stroke-dasharray:none;stroke-opacity:1;marker-end:url(#FilledArrow_Marker)" />
</svg>

<?xml version="1.0" encoding="utf-8" standalone="no"?>
<!DOCTYPE svg PUBLIC "-//W3C//DTD SVG 1.1//EN" "http://www.w3.org/Graphics/SVG/1.1/DTD/svg11.dtd">
<svg xmlns="http://www.w3.org/2000/svg" xmlns:xl="http://www.w3.org/1999/xlink" version="1.1" viewBox="0 0 396.8504 170.07874" width="396.8504pt" height="170.07874pt" xmlns:dc="http://purl.org/dc/elements/1.1/"><metadata> Produced by OmniGraffle 6.2.5 <dc:date>2015-08-20 23:19:13 +0000</dc:date></metadata><defs><font-face font-family="Helvetica Neue" font-size="10" panose-1="2 0 5 3 0 0 0 2 0 4" units-per-em="1000" underline-position="-100" underline-thickness="50" slope="0" x-height="517" cap-height="714" ascent="951.99585" descent="-212.99744" font-weight="500"><font-face-src><font-face-name name="HelveticaNeue"/></font-face-src></font-face><font-face font-family="Helvetica Neue" font-size="8" panose-1="2 0 5 3 0 0 0 2 0 4" units-per-em="1000" underline-position="-100" underline-thickness="50" slope="0" x-height="517" cap-height="714" ascent="951.99585" descent="-212.99744" font-weight="500"><font-face-src><font-face-name name="HelveticaNeue"/></font-face-src></font-face><marker orient="auto" overflow="visible" markerUnits="strokeWidth" id="FilledArrow_Marker" viewBox="-1 -4 10 8" markerWidth="10" markerHeight="8" color="black"><g><path d="M 8 0 L 0 -3 L 0 3 Z" fill="currentColor" stroke="currentColor" stroke-width="1"/></g></marker></defs><g stroke="none" stroke-opacity="1" stroke-dasharray="none" fill="none" fill-opacity="1"><title>authnr assertion</title><g><title>Layer 1</title><rect x="17.007874" y="17.007874" width="181.41732" height="22.677165" stroke="black" stroke-linecap="round" stroke-linejoin="round" stroke-width=".5"/><text transform="translate(22.007874 22.346457)" fill="black"><tspan font-family="Helvetica Neue" font-size="10" font-weight="500" x="45.79366" y="10" textLength="79.83">authenticatorData</tspan></text><rect x="215.43307" y="17.007874" width="164.40945" height="22.677165" stroke="black" stroke-linecap="round" stroke-linejoin="round" stroke-width=".5"/><text transform="translate(220.43307 22.346457)" fill="black"><tspan font-family="Helvetica Neue" font-size="10" font-weight="500" x="43.219724" y="10" textLength="67.97">clientDataHash</tspan></text><text transform="translate(15.688976 5)" fill="black"><tspan font-family="Helvetica Neue" font-size="8" font-weight="500" x="0" y="8" textLength="97.944">Generated by authenticator</tspan></text><text transform="translate(214.76378 5)" fill="black"><tspan font-family="Helvetica Neue" font-size="8" font-weight="500" x="0" y="8" textLength="40.44">Received fr</tspan><tspan font-family="Helvetica Neue" font-size="8" font-weight="500" x="40.296" y="8" textLength="32.752">om client</tspan></text><circle cx="297.6378" cy="62.362204" r="8.5039505" fill="white"/><circle cx="297.6378" cy="62.362204" r="8.5039505" stroke="black" stroke-linecap="round" stroke-linejoin="round" stroke-width=".5"/><text transform="translate(295.83464 56.68189)" fill="black"><tspan font-family="Helvetica Neue" font-size="8" font-weight="500" fill="black" x=".027149567" y="8" textLength="3.552">||</tspan></text><path d="M 297.6378 39.68504 L 297.6378 45.35433 L 297.6378 48.658263" marker-end="url(#FilledArrow_Marker)" stroke="black" stroke-linecap="round" stroke-linejoin="round" stroke-width=".5"/><path d="M 107.716535 39.68504 L 107.716535 62.362204 L 283.93385 62.362204" marker-end="url(#FilledArrow_Marker)" stroke="black" stroke-linecap="round" stroke-linejoin="round" stroke-width=".5"/><rect x="198.4252" y="124.72441" width="181.41732" height="22.677165" stroke="black" stroke-linecap="round" stroke-linejoin="round" stroke-width=".5"/><text transform="translate(203.4252 130.06299)" fill="black"><tspan font-family="Helvetica Neue" font-size="10" font-weight="500" x="58.02866" y="10" textLength="30.36">SIGNA</tspan><tspan font-family="Helvetica Neue" font-size="10" font-weight="500" x="87.46866" y="10" textLength="25.92">TURE</tspan></text><path d="M 257.95275 88.440944 L 261.35433 85.03937 L 333.92126 85.03937 L 337.32283 88.440944 L 337.32283 98.64567 L 333.92126 102.047243 L 261.35433 102.047243 L 257.95275 98.64567 Z" stroke="black" stroke-linecap="round" stroke-linejoin="round" stroke-width=".5"/><text transform="translate(264.937 87.543306)" fill="black"><tspan font-family="Helvetica Neue" font-size="10" font-weight="500" x="22.700787" y="10" textLength="20">Sign</tspan></text><path d="M 297.6378 70.866146 L 297.6378 77.952755 L 297.6378 79.83937" marker-end="url(#FilledArrow_Marker)" stroke="black" stroke-linecap="round" stroke-linejoin="round" stroke-width=".5"/><path d="M 297.6378 102.047243 L 297.6378 113.385826 L 297.6378 119.52441" marker-end="url(#FilledArrow_Marker)" stroke="black" stroke-linecap="round" stroke-linejoin="round" stroke-width=".5"/><rect x="133.228346" y="85.03937" width="79.37008" height="17.007874" stroke="black" stroke-linecap="round" stroke-linejoin="round" stroke-width=".5"/><text transform="translate(138.228346 87.543307)" fill="black"><tspan font-family="Helvetica Neue" font-size="10" font-weight="500" x="10.055039" y="10" textLength="49.26">Private key</tspan></text><path d="M 212.59842 93.543307 L 235.27559 93.543307 L 252.75275 93.543307" marker-end="url(#FilledArrow_Marker)" stroke="black" stroke-linecap="round" stroke-linejoin="round" stroke-width=".5"/></g></g></svg>
